X: 133
T: the Black Joke
%R: jig
Z: 2017 John Chambers <jc:trillian.mit.edu>
B: John Treat - "Gamut for the Fifes", 1779, p.13 #3
F: https://archive.org/details/GamutFortheFifes
M: 6/8
L: 1/8
K: G
% - - - - - - - - - - - - - - - - - - - - - - - - -
D |\
G2G GFG | ABA AGA | c2c B2B | ABA AGA |\
c2c B2B | ABA AGF | G2G F2E | DEF G2 :|
|: A |\
B2c d2d | ede d2c | B2c d2d | ede d2c |\
Bcd c2B | ABA AGA | c2c B2B | ABA AGF |\
G2G F2E | DEF G2 :|
% - - - - - - - - - - - - - - - - - - - - - - - - -

%%sep 1 1 500
%%sep 1 1 500

